X: 16
T: HORNPIPE: Little Beggarman
C: C: Trad.; S: Various
C: Set Leaders: André, Sophie, Anton
Z: Anton Zille ed.; Logan Green at The Session
N: https://thesession.org/members/26966/sets/96711
R: Hornpipe
M: 4/4
L: 1/8
Q: 1/2=82
K: Amix
|:"A"EAAG ABcd|"A"efec "D"d2 cd|"A"e2 A2 ABcA|"G"B=GEF G2 FG|
"A"EAAG ABcd|"A"efec "D"d2 cd|"A"e2 a2 "G"aged|"A"c2 A2 A4:||
|:"G"gfga gfef|"G"gfec "D"d2 cd|"A"e2 A2 ABcA|"G"B=GEF G2 FG|
"A"EAAG ABcd|"A"efec "D"d2 cd|"A"e=gab "G"aged|"A"(3cBA "G"B=G "A"A4:||

